svgs/regular/mosquito.svg

<svg xmlns="http://www.w3.org/2000/svg" viewBox="0 0 640 512"><!--! Font Awesome Pro 6.1.1 by @fontawesome - https://fontawesome.com License - https://fontawesome.com/license (Commercial License) Copyright 2022 Fonticons, Inc. --><path d="M177.5 506.9C167.2 498.7 165.3 483.4 173.3 472.8L216.3 415.5V359.9C216.3 354 218.4 348.4 222 344L284.3 269.4L154.6 387.8C97.58 447.6 .0003 405.2 0 320.6C0 272.7 34.02 232.4 79.35 226.4L232.3 202.5L191.5 161.6C183.7 153.8 182.1 141.5 187.6 131.8L211.5 90.07L173.3 39.19C165.3 28.55 167.2 13.27 177.5 5.054C187.9-3.162 202.7-1.2 210.7 9.437L258.7 73.35C264.6 81.22 265.3 91.1 260.4 100.6L237.8 140L287.1 190.3V152.1C287.1 137.2 298.2 124.7 311.1 121.1V63.94C311.1 59.52 315.6 55.94 319.1 55.94C324.4 55.94 327.1 59.52 327.1 63.94V121.1C341.8 124.7 351.1 137.2 351.1 152.1V190.3L402.2 140L379.6 100.6C374.7 91.1 375.4 81.22 381.3 73.35L429.3 9.437C437.3-1.199 452.1-3.161 462.5 5.055C472.8 13.27 474.7 28.55 466.7 39.19L428.5 90.07L452.4 131.8C457.9 141.5 456.3 153.8 448.5 161.6L407.7 202.5L560.6 226.4C605.1 232.3 640 272.7 640 320.6C640 405.2 542.4 447.6 485.4 387.8L355.7 269.4L417.1 344C421.6 348.4 423.7 354 423.7 359.9V422.5L465.7 471.6C474.4 481.6 473.5 497 463.7 505.9C453.9 514.8 438.9 513.9 430.3 503.8L382.3 447.9C378.4 443.4 376.3 437.7 376.3 431.8V368.9L351.1 339.7V407.8C351.1 425.5 337.7 439.8 319.1 439.8C302.3 439.8 287.1 425.5 287.1 407.8V339.7L263.7 368.9V423.8C263.7 429.1 261.9 434.4 258.7 438.6L210.7 502.6C202.7 513.2 187.9 515.1 177.5 506.9L177.5 506.9zM119.9 354.6C120.7 353.8 121.5 353.1 122.3 352.3L233.4 250.9L86.77 273.8C86.38 273.9 85.98 273.1 85.59 274C65.84 276.6 48 295.1 48 320.6C48 342.1 60.25 357.9 75.04 364.3C89.56 370.6 106.3 368.9 119.9 354.6V354.6zM406.6 250.9L517.7 352.3C518.5 353.1 519.3 353.8 520.1 354.6C533.7 368.9 550.4 370.6 564.1 364.3C579.8 357.9 592 342.1 592 320.6C592 295.1 574.2 276.6 554.4 274C554 273.9 553.6 273.9 553.2 273.8L406.6 250.9z"/></svg>

<svg xmlns="http://www.w3.org/2000/svg" viewBox="0 0 640 512"><!--! Font Awesome Pro 6.4.2 by @fontawesome - https://fontawesome.com License - https://fontawesome.com/license (Commercial License) Copyright 2023 Fonticons, Inc. --><path d="M177.5 506.9c-10.3-8.2-12.2-23.5-4.3-34.1l43.1-57.3 0-55.6c0-5.8 2-11.4 5.7-15.8l62.3-74.6L154.6 387.8C97.6 447.6 0 405.2 0 320.6c0-47.9 34-88.3 79.3-94.2l153-23.9-40.8-40.9c-7.8-7.8-9.4-20.1-3.9-29.8l23.9-41.7L173.3 39.2c-8-10.6-6.1-25.9 4.3-34.1s25.2-6.3 33.2 4.4l48 63.9c5.9 7.9 6.6 18.6 1.7 27.2L237.8 140 288 190.3l0-38.1c0-14.9 10.2-27.4 24-31l0-57.2c0-4.4 3.6-8 8-8s8 3.6 8 8l0 57.2c13.8 3.6 24 16.1 24 31l0 38.2L402.2 140l-22.6-39.5c-4.9-8.6-4.2-19.3 1.7-27.2l48-63.9c8-10.6 22.8-12.6 33.2-4.4s12.2 23.5 4.3 34.1L428.5 90.1l23.9 41.7c5.5 9.7 3.9 22-3.9 29.8l-40.8 40.9 153 23.9c45.3 5.9 79.4 46.3 79.4 94.2c0 84.6-97.6 127-154.6 67.1L355.7 269.4 418 344c3.7 4.4 5.7 10 5.7 15.8l0 62.7 42.1 49c8.6 10.1 7.7 25.5-2.1 34.3s-24.7 7.9-33.4-2.1l-48-55.9c-3.8-4.4-5.9-10.2-5.9-16.1l0-62.9L352 339.7l0 68.1c0 17.7-14.3 32-32 32s-32-14.3-32-32l0-68.1-24.3 29.2 0 54.9c0 5.4-1.7 10.6-4.9 14.9l-48 63.9c-8 10.6-22.8 12.6-33.2 4.4zM119.9 354.6c.8-.8 1.6-1.6 2.4-2.3L233.4 250.9l-146.6 23c-.4 .1-.8 .1-1.2 .2C65.8 276.6 48 295.1 48 320.6c0 22.3 12.2 37.3 27 43.7c14.5 6.3 31.3 4.5 44.9-9.7zM406.6 250.9L517.7 352.3c.8 .7 1.6 1.5 2.4 2.3c13.6 14.2 30.4 16 44.9 9.7c14.8-6.4 27-21.4 27-43.7c0-25.5-17.8-44-37.6-46.6c-.4-.1-.8-.1-1.2-.2L406.6 250.9z"/></svg>
